X:21
T:Peacock's Feather, The
R:hornpipe
H:Descended from the Scottish strathspey "The Glasgow Highlanders"
D:Frankie Gavin & Alec Finn
D:M\'aire N\i Chathasaigh and Chris Newman: The Living Wood
Z:id:hn-hornpipe-21
M:C|
K:D
AG|FE (3FED A2AB|de (3fed B2ef|(3gfe fd ecdB|AGFD E2AG|
FE (3FED A2AB|defd B2ef|(3gfe fd ecdB|Adfe d2:|
|:fg|(3agf ge fdec|defd B2ef|(3gfe fd ecdB|AGFD E2AG|
FE (3FED A2AB|defd B2ef|(3gfe fd ecdB|Adfe d2:|

